build/assets/images/svg/icons/menu/basket.svg

<svg width="24" height="24" viewBox="0 0 24 24" fill="none" xmlns="http://www.w3.org/2000/svg">
<path fill-rule="evenodd" clip-rule="evenodd" d="M6.30879 4.32088C6.13829 4.32051 5.97394 4.33981 5.81776 4.37649C5.60366 3.90461 5.32086 3.48126 4.99921 3.15962C4.45329 2.61369 3.59228 2.39844 2.40039 2.39844V4.31844C3.1285 4.31844 3.54749 4.42319 3.64157 4.51726C4.00442 4.88011 4.32039 5.61738 4.32039 6.23844L4.33004 6.3742L5.27071 12.9589C3.69673 13.0406 2.47738 14.2629 2.40157 15.7909L2.40039 16.7984C2.49334 18.3766 3.70863 19.5906 5.2259 19.6769L5.44384 19.6772C5.83886 20.7964 6.90597 21.5984 8.16039 21.5984C9.41436 21.5984 10.4811 20.797 10.8765 19.6784H13.1243C13.5196 20.797 14.5864 21.5984 15.8404 21.5984C17.431 21.5984 18.7204 20.309 18.7204 18.7184C18.7204 17.1279 17.431 15.8384 15.8404 15.8384C14.5864 15.8384 13.5196 16.6399 13.1243 17.7584H10.8765C10.4811 16.6399 9.41436 15.8384 8.16039 15.8384C6.90642 15.8384 5.83963 16.6399 5.44427 17.7584H5.28039C4.7908 17.7291 4.35163 17.2903 4.31867 16.741L4.32039 15.8384C4.34628 15.3405 4.78245 14.9043 5.32796 14.8773L7.22313 14.8777L7.23687 14.8784H16.9126L17.0543 14.8335C17.7822 14.6025 18.3648 14.0544 18.6407 13.3449L18.7419 13.1447L19.0705 12.4937C19.4104 11.8198 19.7504 11.1448 20.0816 10.4853C20.8931 8.86987 21.4034 7.84323 21.5164 7.59113C22.0968 6.29647 20.9211 5.3 19.7195 5.27878L6.30879 4.32088ZM16.5793 12.9615H7.309C7.24736 12.9443 7.20038 12.8921 7.19119 12.8271L6.25049 6.24219L19.5783 7.19661C19.3451 7.67219 18.9212 8.52164 18.3662 9.62653L18.3523 9.65421C18.0355 10.2849 17.696 10.959 17.3565 11.632L17.0283 12.2821L16.9039 12.5284L16.8571 12.6372C16.8069 12.7769 16.7074 12.8917 16.5793 12.9615ZM15.8404 19.67C16.3706 19.67 16.8004 19.2402 16.8004 18.71C16.8004 18.1798 16.3706 17.75 15.8404 17.75C15.3102 17.75 14.8804 18.1798 14.8804 18.71C14.8804 19.2402 15.3102 19.67 15.8404 19.67ZM9.1202 18.71C9.1202 19.2402 8.69039 19.67 8.1602 19.67C7.63 19.67 7.2002 19.2402 7.2002 18.71C7.2002 18.1798 7.63 17.75 8.1602 17.75C8.69039 17.75 9.1202 18.1798 9.1202 18.71Z" fill="white"/>
</svg>

<svg width="24" height="24" fill="none" xmlns="http://www.w3.org/2000/svg"><path fill-rule="evenodd" clip-rule="evenodd" d="M6.309 4.32c-.17 0-.335.02-.491.056a4.17 4.17 0 00-.819-1.216c-.546-.546-1.407-.762-2.599-.762v1.92c.728 0 1.147.105 1.242.2.362.362.678 1.1.678 1.72l.01.136.94 6.585c-1.573.082-2.793 1.304-2.868 2.832L2.4 16.798c.093 1.579 1.309 2.793 2.826 2.879h.218a2.881 2.881 0 005.433.001h2.247a2.881 2.881 0 100-1.92h-2.248a2.881 2.881 0 00-5.432 0H5.28c-.49-.029-.928-.468-.961-1.017l.001-.903c.026-.497.462-.934 1.008-.96h11.585l.141-.044a2.52 2.52 0 001.587-1.49l.1-.2.33-.65c.34-.674.68-1.35 1.01-2.009.812-1.615 1.322-2.642 1.435-2.894.58-1.295-.595-2.291-1.796-2.312L6.309 4.32zm10.27 8.641H7.31a.163.163 0 01-.118-.134l-.94-6.585 13.327.955c-.233.475-.657 1.325-1.212 2.43l-.014.027-.995 1.978-.329.65-.124.246-.047.11a.6.6 0 01-.278.323zm-.739 6.709a.96.96 0 100-1.92.96.96 0 000 1.92zm-6.72-.96a.96.96 0 11-1.92 0 .96.96 0 011.92 0z" fill="#fff"/></svg>
